src/components/careers/InTheMediaSection/logos/TheRegisterSVG.svg

<svg viewBox="0 0 218 33" fill="none" xmlns="http://www.w3.org/2000/svg">
    <path
        d="M89.3736 17.6481C88.0307 18.6628 86.628 19.6476 85.1359 20.6026C83.9422 21.4084 82.6291 22.0649 81.2861 22.5722C80.1222 22.9602 79.4358 22.9005 78.9882 22.3932C78.6002 21.7665 78.6002 20.722 78.9285 19.4387C79.3165 18.0659 79.7641 16.723 80.3311 15.4099C80.9578 14.1565 81.495 12.8732 81.9427 11.5601C82.3903 10.2769 82.5992 8.93392 82.5694 7.59098C82.5395 6.18835 82.1217 4.81557 81.3458 3.62185C80.5997 2.48781 79.4955 1.62236 78.2123 1.17471C76.7201 0.60769 75.1384 0.3391 73.5269 0.398787C71.796 0.398787 70.0651 0.727065 68.4536 1.35377C67.1405 1.8611 65.9169 2.63702 64.8724 3.59201C63.7682 4.66636 62.9028 5.94961 62.3059 7.38208C62.0671 8.09832 61.9179 8.81455 61.8582 9.56063C61.7986 10.4559 61.7389 11.2318 61.7389 12.0078V13.1717C61.0226 13.679 60.2766 14.246 59.3514 14.9622C58.3964 15.7083 57.531 16.5439 56.7252 17.4691C55.8598 18.4837 55.1137 19.5581 54.4273 20.6623C53.92 21.4083 53.532 22.244 53.2634 23.1094C53.2037 23.378 53.2634 23.945 53.4425 25.0194C53.6215 26.034 54.2184 27.2576 55.054 28.6005C55.8896 29.9435 57.3519 31.2267 59.2917 32.3906C59.2917 32.3906 59.3514 32.3906 59.4111 32.2713L59.5305 32.1519C59.4708 32.1519 59.2619 31.8833 58.8143 31.376C58.3368 30.7791 57.919 30.1524 57.5907 29.466C57.2027 28.7199 57.0237 27.8843 57.0833 27.0189C57.143 25.855 57.919 24.7806 59.3216 23.8256C60.7242 22.8707 63.1713 21.9754 66.6331 21.2591C67.5583 21.0204 68.4237 20.6324 69.1997 20.0953C69.9159 19.5879 70.274 19.3193 70.3635 19.2596C70.0949 22.0052 70.5426 24.512 71.8259 26.7503C72.9002 28.6901 74.273 30.421 75.9144 31.8833L91.8804 15.9172V15.8575C91.015 16.3649 90.1794 16.9617 89.3736 17.6481ZM68.4834 8.81455C68.2148 9.44126 67.9761 10.1575 67.7075 10.814C67.5284 11.1722 67.4091 11.5601 67.3195 11.9779C67.3792 12.0376 67.4986 12.2465 67.7672 12.5449C67.9463 12.724 68.0955 12.9031 68.2148 13.112C68.185 13.4999 68.0955 13.8879 67.9462 14.2758C67.7373 14.8727 67.3195 15.3502 66.7227 15.6188C66.0363 15.8874 65.2604 15.9769 64.5441 15.7978C63.9771 15.6785 63.4399 15.4696 62.9326 15.1711C62.5446 14.9025 62.3059 14.7235 62.3059 14.7235L68.8415 7.62083V7.88941C68.6923 8.158 68.573 8.48628 68.4834 8.81455Z"
        fill="#0D102B" />
    <path
        d="M214.566 5.97952C216.416 5.91984 217.938 7.38215 217.998 9.20258C218.058 11.023 216.595 12.5749 214.775 12.6345C214.715 12.6345 214.655 12.6345 214.566 12.6345C212.716 12.6942 211.194 11.2319 211.134 9.41148C211.074 7.59105 212.537 6.03921 214.357 5.97952C214.447 5.97952 214.506 5.97952 214.566 5.97952ZM214.506 6.63607C213.044 6.69576 211.94 7.91933 211.999 9.38164C212.059 10.7544 213.193 11.8586 214.566 11.8885C215.969 11.8885 217.132 10.7544 217.132 9.35179C217.132 9.32195 217.132 9.29211 217.132 9.26227C217.073 7.85964 216.058 6.63607 214.506 6.63607ZM213.999 10.9932H213.223V7.74027C213.641 7.65074 214.088 7.6209 214.506 7.6209C214.894 7.59105 215.312 7.68058 215.67 7.88948C215.879 8.06854 215.998 8.30728 215.998 8.60572C215.998 8.99368 215.76 9.23242 215.282 9.38164V9.44133C215.61 9.59054 215.849 9.91882 215.939 10.2769C216.058 10.7843 216.058 10.9932 216.207 11.1125H215.372C215.252 10.9932 215.252 10.7246 215.103 10.3366C215.043 9.94866 214.835 9.82929 214.387 9.82929H213.999V10.9932ZM213.999 9.11305H214.387C214.835 9.11305 215.163 8.99368 215.163 8.60572C215.163 8.27744 214.894 8.09838 214.447 8.09838C214.297 8.09838 214.148 8.09838 213.999 8.15807V9.11305Z"
        fill="#0D102B" />
    <path d="M0.113281 4.18892H18.7652V9.82927H13.6322V25.0791H5.30599V9.82927H0.113281V4.18892Z" fill="#0D102B" />
    <path
        d="M35.0297 25.0791H27.9868V16.2455C28.0166 15.7979 27.8972 15.3502 27.6585 14.9623C27.4197 14.6937 27.0616 14.5444 26.7035 14.5743C26.3454 14.5444 25.9873 14.6937 25.7485 14.9623C25.4799 15.2308 25.4203 15.7382 25.4203 16.5141V25.1686H18.3176V4.21872H25.4203V12.545C25.8381 11.7989 26.4648 11.1722 27.2108 10.7544C28.0464 10.3366 28.9716 10.1575 29.8967 10.1874C30.5533 10.1575 31.2397 10.247 31.8664 10.4559C32.3737 10.6052 32.8512 10.8439 33.269 11.1722C33.6271 11.4706 33.9554 11.7989 34.224 12.1868C34.5224 12.6643 34.7313 13.2313 34.791 13.7984C34.9402 14.634 34.9999 15.4994 34.9701 16.3649L35.0297 25.0791Z"
        fill="#0D102B" />
    <path
        d="M52.5173 19.0507H42.4602V19.5581C42.4602 20.5131 42.5795 21.1696 42.9078 21.468C43.2958 21.8262 43.833 22.0351 44.3701 21.9754C44.8476 22.0052 45.2953 21.856 45.6534 21.5277C45.9817 21.1696 46.1906 20.722 46.2204 20.2445H52.3681C52.3084 20.9906 52.0697 21.7366 51.6519 22.3633C51.2341 23.0796 50.667 23.6764 49.9806 24.1539C49.2644 24.6314 48.4586 24.9895 47.5932 25.1686C46.4591 25.4372 45.2953 25.5566 44.1314 25.5566C43.0869 25.5566 42.0125 25.467 40.9979 25.2283C40.1324 25.0492 39.3266 24.6911 38.6402 24.1539C37.924 23.6167 37.3272 22.9602 36.8497 22.244C36.4617 21.6471 36.1633 20.9607 36.014 20.2445C35.8051 19.4387 35.7156 18.6329 35.6858 17.7973C35.6261 16.5141 35.8648 15.2607 36.3125 14.067C36.7004 13.2612 37.2376 12.545 37.924 11.9481C38.6402 11.3214 39.4759 10.8439 40.3711 10.5455C41.6544 10.1575 42.9973 9.9486 44.3403 9.97844C45.5937 9.9486 46.877 10.1277 48.0707 10.5455C49.0853 10.9334 49.9806 11.5303 50.6969 12.336C51.2937 13.0224 51.7414 13.7984 52.0398 14.634C52.3681 15.6785 52.5173 16.7827 52.4875 17.9167L52.5173 19.0507ZM46.1906 15.9769C46.2204 15.4099 46.1309 14.8429 45.922 14.3057C45.5937 13.7984 45.0864 13.5895 44.4 13.5895C43.8031 13.5596 43.2361 13.8282 42.878 14.3057C42.6094 14.634 42.49 15.201 42.49 15.9769H46.1906Z"
        fill="#0D102B" />
    <path
        d="M90.3887 4.12918H102.893C105.519 4.12918 107.369 4.57683 108.414 5.53181C109.488 6.4271 110.026 7.77004 110.026 9.44126C110.026 10.0978 109.906 10.7544 109.697 11.3512C109.548 11.8884 109.25 12.3957 108.862 12.8135C108.504 13.2015 108.056 13.5298 107.578 13.7685C107.011 14.0371 106.444 14.2758 105.847 14.4847C106.504 14.5743 107.161 14.7533 107.787 14.9921C108.205 15.1711 108.533 15.4696 108.802 15.8277C109.1 16.2455 109.309 16.723 109.369 17.2303C109.488 17.7973 109.697 18.9612 109.876 20.6324C110.055 22.1843 110.354 23.7063 110.772 25.1686H102.624C102.505 24.8701 102.416 24.5419 102.356 24.2136C102.296 23.8853 102.236 23.378 102.087 22.5424L101.699 19.7371C101.64 19.2596 101.49 18.7822 101.311 18.3345C101.192 18.0958 100.983 17.8869 100.744 17.8272C100.327 17.7376 99.9087 17.7078 99.4611 17.7078H98.5658V25.1387H90.3887V4.12918ZM98.5359 12.9031H99.1626C99.67 12.9031 100.207 12.8434 100.685 12.724C101.102 12.6046 101.461 12.3659 101.699 12.0078C101.938 11.6198 102.057 11.1722 102.028 10.7245C102.057 10.1873 101.849 9.68 101.461 9.32188C101.073 8.99361 100.297 8.87424 99.1626 8.87424H98.5359V12.9031Z"
        fill="#0D102B" />
    <path
        d="M127.096 19.0507H117.038V19.5581C117.038 20.5131 117.158 21.1696 117.486 21.468C117.874 21.8262 118.411 22.0351 118.948 21.9754C119.426 22.0052 119.874 21.856 120.232 21.5277C120.56 21.1696 120.769 20.722 120.799 20.2445H126.946C126.887 20.9906 126.648 21.7366 126.23 22.3633C125.812 23.0796 125.245 23.6764 124.559 24.1539C123.843 24.6314 123.037 24.9895 122.201 25.1686C121.067 25.4372 119.903 25.5566 118.739 25.5566C117.695 25.5566 116.621 25.467 115.606 25.2283C114.741 25.0492 113.935 24.6613 113.248 24.1539C112.532 23.6167 111.935 22.9602 111.458 22.244C111.07 21.6471 110.771 20.9607 110.622 20.2445C110.413 19.4387 110.294 18.6329 110.294 17.7973C110.294 16.5439 110.503 15.2607 110.921 14.067C111.309 13.2612 111.846 12.545 112.532 11.9481C113.248 11.3214 114.054 10.8439 114.979 10.5455C116.262 10.1575 117.605 9.9486 118.948 9.97844C120.202 9.9486 121.485 10.1277 122.649 10.5455C123.664 10.9334 124.559 11.5303 125.275 12.336C125.872 13.0224 126.32 13.7984 126.618 14.634C126.946 15.6785 127.096 16.7827 127.066 17.9167C127.155 18.3345 127.155 18.6926 127.096 19.0507ZM120.828 15.9769C120.828 15.1413 120.769 14.634 120.56 14.3057C120.232 13.7984 119.724 13.5895 119.008 13.5895C118.411 13.5596 117.844 13.8282 117.486 14.3057C117.217 14.634 117.098 15.201 117.098 15.9769H120.828Z"
        fill="#0D102B" />
    <path
        d="M138.198 12.1272L138.466 10.5753H145.062V23.199C145.092 24.1539 145.032 25.1388 144.883 26.0938C144.614 27.6754 143.659 29.0482 142.257 29.8241C141.54 30.2718 140.585 30.5404 139.571 30.7791C138.466 31.0179 137.303 31.1372 136.169 31.1074C133.333 31.1074 131.364 30.6597 130.2 29.7645C129.066 28.899 128.38 27.5561 128.35 26.1236H135.154C135.124 26.4519 135.273 26.7503 135.542 26.9592C135.87 27.1979 136.228 27.3173 136.616 27.2875C137.332 27.2875 137.84 27.0189 138.079 26.5712C138.258 26.1833 138.407 25.5566 138.407 24.5121V23.0497C137.959 23.6765 137.362 24.1539 136.676 24.4524C135.81 24.8105 134.915 24.9597 133.99 24.9597C131.811 24.9597 130.2 24.1838 128.976 22.7215C128.021 21.4979 127.574 19.9759 127.574 17.9764C127.574 15.4696 128.141 13.6193 129.364 12.2764C130.498 10.9633 132.17 10.247 133.9 10.2769C134.796 10.247 135.691 10.4261 136.527 10.7842C137.183 11.0827 137.78 11.5602 138.198 12.1272ZM136.348 20.901C136.706 20.901 137.064 20.8115 137.362 20.5728C137.631 20.3639 137.81 20.0356 137.87 19.6775C137.959 18.9612 138.019 18.2152 137.989 17.4989C137.989 16.8424 137.959 16.1858 137.87 15.5293C137.78 15.201 137.601 14.8727 137.362 14.634C137.094 14.4549 136.795 14.3654 136.467 14.3654C136.109 14.3356 135.781 14.4549 135.512 14.6937C135.243 14.9026 135.064 15.201 134.945 15.5293C134.796 16.3649 134.706 17.2303 134.766 18.0958C134.766 18.6927 134.796 19.2895 134.885 19.8864C134.945 20.2147 135.124 20.5131 135.393 20.722C135.691 20.8414 136.019 20.9309 136.348 20.901Z"
        fill="#0D102B" />
    <path d="M146.136 8.66538V4.24859H153.06V8.66538H146.136ZM146.136 10.6052H153.06V25.0791H146.136V10.6052Z"
        fill="#0D102B" />
    <path
        d="M153.716 20.3937H160.132C160.132 21.11 160.252 21.6173 160.52 21.9456C160.819 22.2739 161.236 22.4231 161.684 22.3932C162.102 22.4231 162.49 22.3037 162.848 22.065C163.116 21.8262 163.266 21.4681 163.236 21.11C163.236 20.8115 163.146 20.4833 162.908 20.2744C162.639 20.0953 162.072 19.8864 161.117 19.767L158.55 19.3194C157.655 19.2 156.79 18.9314 155.984 18.5435C155.208 18.0958 154.581 17.4094 154.253 16.544C154.104 16.0665 154.014 15.5592 153.984 15.0817C153.984 13.8581 154.313 12.9031 154.939 12.1869C155.626 11.411 156.521 10.8439 157.506 10.5157C158.521 10.1277 159.953 10.0083 161.594 10.0083C162.728 10.0083 163.863 10.1277 164.997 10.3366C165.922 10.4858 166.817 10.8738 167.563 11.411C168.19 11.8586 168.667 12.4853 168.966 13.2015C169.145 13.7686 169.234 14.3356 169.234 14.9324H163.206C163.236 14.4848 163.116 14.0371 162.878 13.6492C162.579 13.3806 162.191 13.2314 161.774 13.2612C161.266 13.2612 160.878 13.3209 160.61 13.5895C160.371 13.7984 160.252 14.0968 160.281 14.4251C160.281 14.634 160.341 14.8728 160.401 15.0518C160.46 15.2309 160.669 15.3204 160.848 15.3801C161.266 15.4995 161.684 15.589 162.132 15.6487L164.519 16.0366C165.922 16.2157 167.026 16.544 167.653 16.9319C168.309 17.2304 168.876 17.7377 169.204 18.3943C169.533 19.0806 169.712 19.8267 169.712 20.5728C169.742 21.5278 169.473 22.4529 168.936 23.2587C168.309 24.0644 167.474 24.6911 166.489 25.0493C165.385 25.4969 163.803 25.7655 161.684 25.7655C160.669 25.7655 159.684 25.7058 158.67 25.5864C157.894 25.4671 157.148 25.2582 156.432 24.9597C155.865 24.721 155.357 24.333 154.969 23.8854C154.581 23.4974 154.313 22.9901 154.134 22.4828C153.835 21.7964 153.686 21.11 153.716 20.3937Z"
        fill="#0D102B" />
    <path
        d="M171.263 8.15804L178.187 5.74075V10.5455H181.47V14.9026H178.187V19.2C178.187 19.9162 178.247 20.3639 178.515 20.5429C178.754 20.7817 179.082 20.9011 179.411 20.8712C180.037 20.8712 180.664 20.7817 181.261 20.6026V24.9C179.739 25.2283 178.187 25.4074 176.635 25.4671C175.77 25.4671 174.904 25.3477 174.069 25.0791C173.382 24.9 172.756 24.5121 172.278 24.0047C171.92 23.5869 171.681 23.1094 171.502 22.6021C171.353 22.0053 171.293 21.4084 171.293 20.8115V14.9026H169.383V10.6052H171.293L171.263 8.15804Z"
        fill="#0D102B" />
    <path
        d="M198.033 19.0507H187.976V19.5581C187.976 20.5131 188.095 21.1696 188.423 21.468C188.811 21.856 189.378 22.0351 189.915 21.9754C190.393 22.0052 190.84 21.856 191.199 21.5277C191.527 21.1696 191.736 20.722 191.766 20.2445H197.854C197.794 20.9906 197.555 21.7366 197.137 22.3633C196.72 23.0796 196.153 23.6764 195.466 24.1539C194.75 24.6314 193.944 24.9895 193.079 25.1686C191.945 25.4372 190.781 25.5566 189.617 25.5566C188.572 25.5566 187.498 25.467 186.483 25.2283C185.618 25.0492 184.812 24.6613 184.126 24.1539C183.41 23.6167 182.813 22.99 182.335 22.244C181.947 21.6471 181.649 20.9607 181.5 20.2445C181.291 19.4387 181.201 18.6329 181.171 17.7973C181.171 16.5439 181.38 15.2607 181.828 14.067C182.216 13.2612 182.753 12.545 183.439 11.9481C184.156 11.3214 184.991 10.8439 185.887 10.5455C187.17 10.1575 188.513 9.9486 189.856 9.97844C191.109 9.9486 192.392 10.1277 193.586 10.5455C194.601 10.9334 195.496 11.5303 196.212 12.336C196.809 12.9926 197.257 13.7984 197.495 14.634C197.794 15.7083 197.943 16.7827 197.943 17.9167C198.063 18.3047 198.092 18.6926 198.033 19.0507ZM191.766 15.9769C191.766 15.1413 191.706 14.634 191.497 14.3057C191.169 13.7984 190.661 13.5895 189.945 13.5895C189.348 13.5298 188.751 13.7984 188.393 14.2758C188.125 14.6041 188.065 15.1711 188.065 15.9471L191.766 15.9769Z"
        fill="#0D102B" />
    <path
        d="M198.809 10.3962H205.524L205.703 12.1271C206.18 11.5601 206.747 11.1125 207.374 10.7245C207.852 10.4559 208.389 10.3366 208.926 10.3366C209.493 10.3664 210.06 10.4559 210.597 10.6648V16.2455C210 16.0963 209.403 15.9769 208.807 15.9172C208.478 15.9172 208.239 15.8575 207.911 15.8575C207.374 15.8277 206.837 16.0068 206.449 16.3649C206.121 16.6931 205.942 17.2602 205.942 18.0361V25.1387H198.809V10.3962Z"
        fill="#0D102B" />
</svg>

<svg viewBox="0 0 218 33" fill="none" xmlns="http://www.w3.org/2000/svg">
    <path
        d="m89.4 17.6-4.3 3c-1.2.8-2.5 1.5-3.8 2-1.2.4-1.9.3-2.3-.2-.4-.6-.4-1.7 0-3 .3-1.3.8-2.7 1.3-4 .7-1.2 1.2-2.5 1.6-3.8.5-1.3.7-2.7.7-4 0-1.4-.5-2.8-1.3-4-.7-1.1-1.8-2-3-2.4a14 14 0 0 0-9.8.2c-1.4.5-2.6 1.2-3.6 2.2-1.1 1-2 2.3-2.6 3.8-.2.7-.4 1.4-.4 2.2l-.2 2.4v1.2L59.4 15a19 19 0 0 0-5 5.7c-.5.7-.9 1.5-1.1 2.4-.1.3 0 .8.1 2a12.4 12.4 0 0 0 5.8 7.4l.2-.2.1-.1-.7-.8c-.5-.6-.9-1.2-1.2-2-.4-.7-.6-1.5-.5-2.4 0-1.1.8-2.2 2.2-3.2 1.4-1 3.9-1.8 7.3-2.5a8 8 0 0 0 2.6-1.2c.7-.5 1-.8 1.2-.8-.3 2.7.1 5.2 1.4 7.5 1.1 1.9 2.5 3.6 4.1 5L92 16c-.9.5-1.7 1-2.5 1.7Zm-21-8.8-.7 2-.4 1.2.5.5.4.6-.3 1.2c-.2.6-.6 1-1.2 1.3-.7.3-1.4.4-2.2.2l-1.6-.6-.6-.5 6.5-7v.2l-.3 1ZM214.6 6a3.3 3.3 0 0 1 .2 6.6h-.2a3.3 3.3 0 0 1-.2-6.6h.2Zm0 .6a2.6 2.6 0 0 0-2.6 2.8c0 1.4 1.2 2.5 2.6 2.5 1.4 0 2.5-1.1 2.5-2.5v-.1c0-1.4-1-2.7-2.6-2.7ZM214 11h-.8V7.7h1.3c.4-.1.8 0 1.2.2.2.2.3.4.3.7 0 .4-.2.6-.7.8.3.2.5.5.6.9l.3.8h-.8l-.3-.8c0-.4-.3-.5-.7-.5h-.4V11Zm0-1.9h.4c.4 0 .8-.1.8-.5 0-.3-.3-.5-.8-.5h-.4v1ZM.1 4.2h18.7v5.6h-5.2v15.3H5.3V9.8H.1V4.2Z"
        fill="#0D102B" />
    <path
        d="M35 25h-7v-8.8l-.3-1.2c-.3-.3-.6-.5-1-.4-.4 0-.7 0-1 .4-.2.2-.3.7-.3 1.5v8.7h-7v-21h7v8.3c.4-.7 1-1.3 1.8-1.7.8-.5 1.8-.6 2.7-.6a5.5 5.5 0 0 1 3.4 1l1 1 .5 1.6.2 2.6V25ZM52.5 19h-10v.6c0 1 0 1.6.4 1.9.4.3 1 .5 1.5.5.4 0 .9-.1 1.3-.5.3-.3.5-.8.5-1.3h6.2c0 .8-.3 1.5-.7 2.2-.5.7-1 1.3-1.7 1.8-.7.4-1.5.8-2.4 1a15 15 0 0 1-6.6 0c-.9-.2-1.7-.5-2.4-1a7.8 7.8 0 0 1-1.8-2 6 6 0 0 1-.8-2l-.3-2.4c0-1.3.2-2.5.6-3.7.4-.8 1-1.6 1.6-2.2.7-.6 1.6-1 2.5-1.4a12.8 12.8 0 0 1 7.7 0 6.7 6.7 0 0 1 4 4.1c.3 1 .4 2.2.4 3.3v1.2Zm-6.3-3a4 4 0 0 0-.3-1.7c-.3-.5-.8-.7-1.5-.7-.6 0-1.2.2-1.5.7-.3.3-.4.9-.4 1.7h3.7ZM90.4 4.1h12.5c2.6 0 4.5.5 5.5 1.4a5.8 5.8 0 0 1 1.3 5.8c-.2.6-.5 1.1-.8 1.5l-1.3 1-1.8.7c.7 0 1.4.3 2 .5l1 .8c.3.4.5 1 .6 1.4l.5 3.4c.2 1.6.5 3.1.9 4.6h-8.2a5 5 0 0 1-.2-1l-.3-1.7-.4-2.8c0-.4-.2-1-.4-1.4a1 1 0 0 0-.6-.5 6 6 0 0 0-1.2 0h-1V25h-8.1v-21Zm8.1 8.8h.7c.5 0 1 0 1.5-.2.4-.1.8-.3 1-.7.2-.4.4-.8.3-1.3 0-.5-.2-1-.5-1.4-.4-.3-1.2-.4-2.3-.4h-.7v4Z"
        fill="#0D102B" />
    <path
        d="M127.1 19h-10v.6c0 1 0 1.6.4 1.9.4.3 1 .5 1.4.5.5 0 1-.1 1.3-.5.4-.3.6-.8.6-1.3h6.1c0 .8-.3 1.5-.7 2.2-.4.7-1 1.3-1.6 1.8-.8.4-1.6.8-2.4 1a15 15 0 0 1-6.6 0 6 6 0 0 1-2.4-1 7.8 7.8 0 0 1-1.7-2 9.7 9.7 0 0 1-1.2-4.4c0-1.3.2-2.5.6-3.7.4-.8 1-1.6 1.6-2.2.7-.6 1.6-1 2.5-1.4a12.8 12.8 0 0 1 7.6 0 6.7 6.7 0 0 1 4 4.1c.3 1 .5 2.2.5 3.3v1.2Zm-6.3-3c0-.9 0-1.4-.2-1.7-.4-.5-.9-.7-1.6-.7-.6 0-1.2.2-1.5.7-.3.3-.4.9-.4 1.7h3.7ZM138.2 12.1l.3-1.5h6.6v12.6c0 1 0 2-.2 2.9-.3 1.6-1.2 3-2.6 3.7-.8.5-1.7.7-2.7 1-1.1.2-2.3.3-3.4.3-2.9 0-4.8-.4-6-1.3a4.7 4.7 0 0 1-1.8-3.7h6.8c0 .4 0 .7.3.9.4.2.7.3 1.1.3.7 0 1.2-.3 1.5-.7.2-.4.3-1 .3-2V23c-.4.7-1 1.2-1.7 1.5a7 7 0 0 1-2.7.5c-2.2 0-3.8-.8-5-2.3a7.4 7.4 0 0 1-1.4-4.7c0-2.5.5-4.4 1.8-5.7 1.1-1.3 2.8-2 4.5-2 .9 0 1.8.1 2.6.5.7.3 1.3.8 1.7 1.3Zm-1.9 8.8c.4 0 .8 0 1-.3.3-.2.5-.6.6-1v-4.1a2 2 0 0 0-.5-.9l-1-.2c-.3 0-.6 0-.9.3-.3.2-.4.5-.6.8-.1.9-.2 1.7-.1 2.6v1.8c.1.3.3.6.6.8l1 .2ZM146.1 8.7V4.2h7v4.5h-7Zm0 2h7V25h-7V10.6ZM153.7 20.4h6.4c0 .7.2 1.2.4 1.5.3.4.7.5 1.2.5.4 0 .8-.1 1.1-.3.3-.3.5-.6.4-1 0-.3 0-.6-.3-.8-.3-.2-.8-.4-1.8-.5l-2.5-.5c-1-.1-1.8-.4-2.6-.8a4 4 0 0 1-1.7-2c-.2-.4-.3-1-.3-1.4 0-1.2.3-2.2 1-3a6 6 0 0 1 2.5-1.6 18.8 18.8 0 0 1 7.5-.2c1 .2 1.8.6 2.6 1.1.6.5 1 1 1.4 1.8l.2 1.7h-6c0-.4 0-.9-.3-1.3-.3-.2-.7-.4-1.1-.3-.5 0-1 0-1.2.3a1 1 0 0 0-.3.8l.1.7.4.3 1.3.2 2.4.4c1.4.2 2.5.5 3.2 1 .6.2 1.2.7 1.5 1.4a5 5 0 0 1-.3 4.9c-.6.8-1.4 1.4-2.4 1.7-1.1.5-2.7.8-4.8.8-1 0-2 0-3-.2-.8-.1-1.6-.3-2.3-.6a4 4 0 0 1-1.4-1.1c-.4-.4-.7-1-.9-1.4-.3-.7-.4-1.4-.4-2.1ZM171.3 8.2l6.9-2.5v4.8h3.3V15h-3.3v4.3c0 .7 0 1.2.3 1.3.3.3.6.4 1 .4l1.8-.3v4.3c-1.6.3-3.1.5-4.7.6-.8 0-1.7-.2-2.5-.4-.7-.2-1.3-.6-1.8-1.1-.4-.4-.6-.9-.8-1.4l-.2-1.8V15h-2v-4.3h2V8.2Z"
        fill="#0D102B" />
    <path
        d="M198 19h-10v.6c0 1 0 1.6.4 1.9.4.4 1 .5 1.5.5s1-.1 1.3-.5c.3-.3.5-.8.6-1.3h6c0 .8-.2 1.5-.7 2.2-.4.7-1 1.3-1.6 1.8-.8.4-1.6.8-2.4 1a15 15 0 0 1-6.6 0 6 6 0 0 1-2.4-1 7.3 7.3 0 0 1-1.8-2 6 6 0 0 1-.8-2l-.3-2.4c0-1.3.2-2.5.6-3.7.4-.8 1-1.6 1.6-2.2.8-.6 1.6-1 2.5-1.4a12.8 12.8 0 0 1 7.7 0c1 .4 1.9 1 2.6 1.8.6.7 1 1.5 1.3 2.3.3 1.1.4 2.2.4 3.3.2.4.2.8.1 1.2Zm-6.2-3c0-.9 0-1.4-.3-1.7-.3-.5-.8-.7-1.6-.7-.6 0-1.1.2-1.5.7-.3.3-.3.9-.3 1.6h3.7ZM198.8 10.4h6.7l.2 1.7c.5-.5 1-1 1.7-1.4.5-.2 1-.4 1.5-.4.6 0 1.2.2 1.7.4v5.5l-1.8-.3h-.9a2 2 0 0 0-1.5.5c-.3.3-.5.9-.5 1.6v7.1h-7V10.4Z"
        fill="#0D102B" />
</svg>
